X:4
T:Charlie Harris's Polka
M:2/4
L:1/8
R:polka
K:Dmaj
|: d>B | AF DF | EF DF | AF AB | e2 d>B |
AF DF | EF DF | AF AB |1 d2 :|2 d2 dA ||
d>e fd | ef dB | AF AB | e2 dA |
d>e fd | ef dB | AF AB | d2 dA |
d>e fd | ef dB | AF AB | e2 dB |
df f f/g/ | af f f/g/ | af e/f/ e | d2 ||
